X:16
T:The Left Handed Fiddler
C: J. Scott Skinner
R: reel
M:2/4
L:1/16
Z: Jason R. Fruit <jason@starlight-glimmer>
K:A
d | cAce {g}(a2ed) | cAEA GBBd | cAce aefd | ecdB cAAd | cAce {g}a2(ed) | cAEA GBBG |
!<(!AcBd ced!<)!f | ecdB cAA || g | a/a/a (Aa) .c.a.A.a | caAa BcdB | a/a/a (Aa) .c.a.A.a |
{a}BcdB !uppermordent!cAAg | !ff!"^neatly Cuckoo"a/a/a (Aa) caAc | caAa BcdB | "^Dance."cAdB eagf | ecdB cA!fermata![AE] |]
"^Alternate last measures for Solo:"AEcA dBec | fdge {g}aA!fermata!A |]